X:136
T:Trip To York. Ru2.136, A
B:RUTHERFORD Complete Collection of 200 Country Dances Vol.2; 1759.
Z:vmp.Steve Mansfield 2015 www.village-music-project.org.uk
M:9/8
L:1/8
W:The first & 2d Cou. foot it & Right Hands
W:Across .| Foot it & Left Hands back again |
W:The first man sets to the 2d Wo. & turns
W:Her .|. The first Wo. sets to the 2d Man &
W:turns him :||: Cross over half Figure .||
W:Right Hands & Left ?
Q:3/8=110
K:G
|:B2g edc B3 | B2g dBG AFD | B2g edc B3 | A3 A2G AFD ?
|: E3 D2C B,3 | A,2A A2G FED | EFE DEC B,3 | A,GF G2D B,A,G, ?
|: G2B BAB BAB | GAB BAB AFD | G2B BAB BAB | A3 A2G FED ?

